src/assets/fail.svg

<svg xmlns="http://www.w3.org/2000/svg" width="800" height="800" viewBox="0 -8 528 528"><path d="M264 456q-54 0-100-27t-73-73-27-100 27-100 73-73 100-27 100 27 73 73 27 100-27 100-73 73-100 27m0-168 64 64 32-32-64-64 64-64-32-32-64 64-64-64-32 32 64 64-64 64 32 32z"/></svg>

<?xml version="1.0" encoding="utf-8"?><!-- Uploaded to: SVG Repo, www.svgrepo.com, Generator: SVG Repo Mixer Tools -->
<svg fill="#000000" width="800px" height="800px" viewBox="0 -8 528 528" xmlns="http://www.w3.org/2000/svg" ><title>fail</title><path d="M264 456Q210 456 164 429 118 402 91 356 64 310 64 256 64 202 91 156 118 110 164 83 210 56 264 56 318 56 364 83 410 110 437 156 464 202 464 256 464 310 437 356 410 402 364 429 318 456 264 456ZM264 288L328 352 360 320 296 256 360 192 328 160 264 224 200 160 168 192 232 256 168 320 200 352 264 288Z" /></svg>
